X:90
T:Touch the Rudder. ThoH.090
Q:3/8=100
M:9/8
L:1/8
B:Thompson's Compleat Collection of 120 Favourite Hornpipes.
Z:Village Music Project, Simon Wilson 2016
O:England.
K:Bb
Bd/c/B BB,B BB,B|Bd/c/B BB,BTc3|Bd/c/B BB,B BB,B|BA/G/F/E/ DF/E/D/C/B,3:|
|:B/c/d/e/f fdB fdB|F/G/A/B/c cAF cAF|B/c/d/e/f fdB fdB|ba/g/f/e/ df/e/d/c/TB3:|

